X:1
T:Invercargill
T:Invercargill
T:Alex Lithgow 1870-1929 
L:1/8
M:2/2
K:F
V:1 treble nm="Piano" snm="Pno."
V:1
 F4 G3 E | FEFG AGAB | c2 z2 E4 | F2 z2 c3 d | c2 A2 A2 A2 | A2 (3FGF E2 F2 | A2 z2 A4- | A4 c3 d | %8
 c2 A2 A2 A2 | A2 (3FGF E2 F2 | B2 z2 B4- | B4 B3 A | ^F2 G2 C4- | C2 E2 G2 B2 | ^G2 A2 F4- | %15
 F2 c2 =B2 A2 | G2 ^FG _A2 GA | =A2 ^GA =B2 AB | c2 z2 c4- | c2 z2 c3 d | c2 A2 A2 A2 | %21
 A2 (3FGF E2 F2 | A2 z2 A4- | A4 c3 d | c2 A2 A2 A2 | A2 (3FGF E2 F2 | d2 z2 d4- | d4 D3 D | F8- | %29
 F2 F2 G2 F2 | C4 A4- | A2 A2 B2 A2 | D4 E2 F2 | G4 A4 | F8- | F2 c2 d3 c | c8- | c2 CD EFG^G | %38
 A8- | A2 A2 B3 A | A8- | A2 A,=B, ^CD^DE | F8- | F2 z2 E3 F | G2 z2 F2 z2 | D2 z2 F2 z2 | C8- | %47
 C2 F2 A2 d2 | c2 z2 D2 z2 | G2 z2 B2 z2 | A8- | A2 c2 d3 c | c8- | c2 CD EFG^G | A8- | %55
 A2 A2 B3 A | A8- | A2 A=B ^cd^de | f8- | f2 z2 F3 F | D8- | D2 F2 B2 d2 | c8- | c2 A2 ^G2 A2 | %64
 B6 E2 | A4 G4 | F2 FF F2 F2 | F2 z2 z4 ||[K:Bb] F/G/A/ B2 z/ z4 | D8- | D2 E2 =E2 G2 | F8- | %72
 F2 D2 F2 B2 | d2 z2 ^B,4 | ^C4 F4 | B8 | A8 | C8- | C2 ^C2 D2 F2 | E8 | E2 C2 E2 A2 | c2 z2 B4 | %82
 A4 e4 | d8 | d8 | D8- | D2 E2 =E2 G2 | F8- | F2 E2 F2 B2 | d2 z2 d4 | d4 d4 | e8 | e8 | B8 | %94
 B2 G2 =E2 G2 | F8- | F2 d2 c2 B2 | e4 d4 | c4 c4 | B8 | B2 F2 =F2 _E2 || B8 | B2 z2 B2 z2 |] %103

